X:197
M:6/8
L:1/8
K:Gmin
|:Bcd cBA|BAG AFD|fgf fcA|fgf fcA|Bcd cBA|BAG AGF|Gag gdB|gag g2A|

